X: 1369
T: The Sailor's Jacket
R:Reel
N:Collected by J. O'Neill
B:O'Neill's 1369
Z:Transcribed by Trish O'Neil
M:C|
L:1/8
K:D
dfecA2AB|cdef {a}gfge|dfecA2AB|cBcG TEDD2:|
d2(fd) adfd|c2(ec) gcec|d2(fd) adfd|eaTag edd2|
defg afge|cdefg2fg|(3agf (3gfe fded|ea{b}ag edd2|]


